status/24/battery_full.svg

<?xml version="1.0" encoding="UTF-8" standalone="no"?>
<!-- Created with Inkscape (http://www.inkscape.org/) -->

<svg
   xmlns:svg="http://www.w3.org/2000/svg"
   xmlns="http://www.w3.org/2000/svg"
   xmlns:xlink="http://www.w3.org/1999/xlink"
   version="1.0"
   width="24"
   height="24"
   id="svg2">
  <defs
     id="defs4">
    <linearGradient
       id="linearGradient3578-995-735-4-566-885-385-488-812-692">
      <stop
         id="stop7577"
         style="stop-color:#025e98;stop-opacity:1"
         offset="0" />
      <stop
         id="stop7579"
         style="stop-color:#3ba2e3;stop-opacity:1"
         offset="1" />
    </linearGradient>
    <linearGradient
       x1="4"
       y1="13.500015"
       x2="10.142856"
       y2="13.500015"
       id="linearGradient3227"
       xlink:href="#linearGradient3578-995-735-4-566-885-385-488-812-692"
       gradientUnits="userSpaceOnUse"
       gradientTransform="matrix(0.8666667,0,0,1,1.5999997,-1.0000155)"
       spreadMethod="reflect" />
    <linearGradient
       id="linearGradient3598-871-484-814-161-889-287-317-39-832">
      <stop
         id="stop7589"
         style="stop-color:#58b8f4;stop-opacity:1"
         offset="0" />
      <stop
         id="stop7591"
         style="stop-color:#136ea8;stop-opacity:1"
         offset="1" />
    </linearGradient>
    <linearGradient
       x1="24"
       y1="16.525082"
       x2="24"
       y2="13.284962"
       id="linearGradient3247"
       xlink:href="#linearGradient3598-871-484-814-161-889-287-317-39-832"
       gradientUnits="userSpaceOnUse" />
    <linearGradient
       id="linearGradient3592-990-183-196-279-371-272-744-724-968">
      <stop
         id="stop7583"
         style="stop-color:#6aadd8;stop-opacity:1"
         offset="0" />
      <stop
         id="stop7585"
         style="stop-color:#0b85d3;stop-opacity:1"
         offset="1" />
    </linearGradient>
    <linearGradient
       x1="15.036061"
       y1="11.205624"
       x2="19.776941"
       y2="18.184662"
       id="linearGradient3245"
       xlink:href="#linearGradient3592-990-183-196-279-371-272-744-724-968"
       gradientUnits="userSpaceOnUse" />
    <linearGradient
       id="linearGradient4173-908-339">
      <stop
         id="stop4476"
         style="stop-color:#b2b2b2;stop-opacity:1"
         offset="0" />
      <stop
         id="stop4478"
         style="stop-color:#e6e6e6;stop-opacity:1"
         offset="1" />
    </linearGradient>
    <linearGradient
       x1="21.714285"
       y1="10.285714"
       x2="27.038286"
       y2="10.285714"
       id="linearGradient3255"
       xlink:href="#linearGradient4173-908-339"
       gradientUnits="userSpaceOnUse"
       gradientTransform="matrix(0.5513378,0,0,0.6057331,-1.1102658,-3.9460965)" />
    <linearGradient
       id="linearGradient3564-531">
      <stop
         id="stop4452"
         style="stop-color:white;stop-opacity:0.37288135"
         offset="0" />
      <stop
         id="stop4454"
         style="stop-color:#a9a9a9;stop-opacity:0"
         offset="1" />
    </linearGradient>
    <linearGradient
       x1="24"
       y1="16.525082"
       x2="24"
       y2="13.284962"
       id="linearGradient3259"
       xlink:href="#linearGradient3564-531"
       gradientUnits="userSpaceOnUse" />
    <linearGradient
       id="linearGradient10033-588-987">
      <stop
         id="stop4446"
         style="stop-color:#e5e5e5;stop-opacity:1"
         offset="0" />
      <stop
         id="stop4448"
         style="stop-color:#b2b2b2;stop-opacity:1"
         offset="1" />
    </linearGradient>
    <linearGradient
       x1="15.036061"
       y1="11.205624"
       x2="19.776941"
       y2="18.184662"
       id="linearGradient3257"
       xlink:href="#linearGradient10033-588-987"
       gradientUnits="userSpaceOnUse" />
  </defs>
  <g
     id="layer1">
    <path
       d="m 5.5,3.5 c 0,6.666667 0,11.145832 0,17.8125 0.00145,0.0087 0.027551,0.02149 0.03125,0.03125 C 5.5196405,21.392793 5.5,21.450047 5.5,21.5 c 0,1.110072 2.9059279,2 6.5,2 3.594072,0 6.5,-0.889929 6.5,-2 0,-0.01943 0.0018,-0.04321 0,-0.0625 0,-6.666667 0,-11.270833 0,-17.9375 -4.333333,0 -8.6666667,0 -13,0 z"
       id="rect2432"
       style="fill:url(#linearGradient3227);fill-opacity:1;fill-rule:nonzero;stroke:#176597;stroke-width:0.99999994;stroke-linecap:round;stroke-linejoin:round;stroke-miterlimit:10;stroke-opacity:1;stroke-dasharray:none;stroke-dashoffset:0;marker:none;visibility:visible;display:inline;overflow:visible;enable-background:accumulate" />
    <path
       d="m 36.857142,14.071428 a 12.857142,5.5 0 1 1 -25.714284,0 12.857142,5.5 0 1 1 25.714284,0 z"
       transform="matrix(0.5064111,0,0,0.3656364,-0.1538667,-1.6450266)"
       id="path3243"
       style="fill:url(#linearGradient3245);fill-opacity:1;fill-rule:nonzero;stroke:url(#linearGradient3247);stroke-width:2.27280688;stroke-linecap:butt;stroke-linejoin:round;stroke-miterlimit:10;stroke-opacity:1;stroke-dasharray:none;stroke-dashoffset:0;marker:none;visibility:visible;display:block;overflow:visible" />
    <path
       d="m 12.060888,0.6710315 c -1.3001,-0.0182745 -2.5534034,0.2607403 -2.5534034,0.6457571 0,0.038185 0,1.2927322 0,1.3325007 0,0.5321464 1.4491864,0.8432262 2.5534034,0.8432262 1.104215,0 2.431627,-0.3110798 2.431627,-0.8432262 0,-0.031498 0,-1.0506783 0,-1.3325007 0,-0.2818226 -1.11929,-0.6273107 -2.431627,-0.6457571 z"
       id="path3251"
       style="opacity:0.3;fill:url(#linearGradient3255);fill-opacity:1;fill-rule:nonzero;stroke:#919191;stroke-width:1.01496899;stroke-linecap:butt;stroke-linejoin:round;stroke-miterlimit:10;stroke-opacity:1;stroke-dasharray:none;stroke-dashoffset:0;marker:none;visibility:visible;display:block;overflow:visible" />
    <path
       d="m 36.857142,14.071428 a 12.857142,5.5 0 1 1 -25.714284,0 12.857142,5.5 0 1 1 25.714284,0 z"
       transform="matrix(0.1938623,0,0,0.11461,7.3473048,-0.4748872)"
       id="path3253"
       style="opacity:0.4;fill:url(#linearGradient3257);fill-opacity:1;fill-rule:nonzero;stroke:url(#linearGradient3259);stroke-width:6.80917931;stroke-linecap:butt;stroke-linejoin:round;stroke-miterlimit:10;stroke-opacity:1;stroke-dasharray:none;stroke-dashoffset:0;marker:none;visibility:visible;display:block;overflow:visible" />
  </g>
</svg>

<?xml version="1.0" encoding="UTF-8" standalone="no"?>
<!-- Created with Inkscape (http://www.inkscape.org/) -->
<svg
   xmlns:svg="http://www.w3.org/2000/svg"
   xmlns="http://www.w3.org/2000/svg"
   xmlns:xlink="http://www.w3.org/1999/xlink"
   version="1.0"
   width="24"
   height="24"
   id="svg2">
  <defs
     id="defs4">
    <linearGradient
       id="linearGradient3578-995-735-4-566-885-385-488-812-692">
      <stop
         id="stop7577"
         style="stop-color:#025e98;stop-opacity:1"
         offset="0" />
      <stop
         id="stop7579"
         style="stop-color:#3ba2e3;stop-opacity:1"
         offset="1" />
    </linearGradient>
    <linearGradient
       x1="4"
       y1="13.500015"
       x2="10.142856"
       y2="13.500015"
       id="linearGradient3227"
       xlink:href="#linearGradient3578-995-735-4-566-885-385-488-812-692"
       gradientUnits="userSpaceOnUse"
       gradientTransform="matrix(0.8666667,0,0,1,1.5999997,-1.0000155)"
       spreadMethod="reflect" />
    <linearGradient
       id="linearGradient3598-871-484-814-161-889-287-317-39-832">
      <stop
         id="stop7589"
         style="stop-color:#58b8f4;stop-opacity:1"
         offset="0" />
      <stop
         id="stop7591"
         style="stop-color:#136ea8;stop-opacity:1"
         offset="1" />
    </linearGradient>
    <linearGradient
       x1="24"
       y1="16.525082"
       x2="24"
       y2="13.284962"
       id="linearGradient3247"
       xlink:href="#linearGradient3598-871-484-814-161-889-287-317-39-832"
       gradientUnits="userSpaceOnUse" />
    <linearGradient
       id="linearGradient3592-990-183-196-279-371-272-744-724-968">
      <stop
         id="stop7583"
         style="stop-color:#6aadd8;stop-opacity:1"
         offset="0" />
      <stop
         id="stop7585"
         style="stop-color:#0b85d3;stop-opacity:1"
         offset="1" />
    </linearGradient>
    <linearGradient
       x1="15.036061"
       y1="11.205624"
       x2="19.776941"
       y2="18.184662"
       id="linearGradient3245"
       xlink:href="#linearGradient3592-990-183-196-279-371-272-744-724-968"
       gradientUnits="userSpaceOnUse" />
    <linearGradient
       id="linearGradient4173-908-339">
      <stop
         id="stop4476"
         style="stop-color:#b2b2b2;stop-opacity:1"
         offset="0" />
      <stop
         id="stop4478"
         style="stop-color:#e6e6e6;stop-opacity:1"
         offset="1" />
    </linearGradient>
    <linearGradient
       x1="21.714285"
       y1="10.285714"
       x2="27.038286"
       y2="10.285714"
       id="linearGradient3255"
       xlink:href="#linearGradient4173-908-339"
       gradientUnits="userSpaceOnUse"
       gradientTransform="matrix(0.5513378,0,0,0.6057331,-1.1102658,-3.9460965)" />
    <linearGradient
       id="linearGradient3564-531">
      <stop
         id="stop4452"
         style="stop-color:#ffffff;stop-opacity:0.37288135"
         offset="0" />
      <stop
         id="stop4454"
         style="stop-color:#a9a9a9;stop-opacity:0"
         offset="1" />
    </linearGradient>
    <linearGradient
       x1="24"
       y1="16.525082"
       x2="24"
       y2="13.284962"
       id="linearGradient3259"
       xlink:href="#linearGradient3564-531"
       gradientUnits="userSpaceOnUse" />
    <linearGradient
       id="linearGradient10033-588-987">
      <stop
         id="stop4446"
         style="stop-color:#e5e5e5;stop-opacity:1"
         offset="0" />
      <stop
         id="stop4448"
         style="stop-color:#b2b2b2;stop-opacity:1"
         offset="1" />
    </linearGradient>
    <linearGradient
       x1="15.036061"
       y1="11.205624"
       x2="19.776941"
       y2="18.184662"
       id="linearGradient3257"
       xlink:href="#linearGradient10033-588-987"
       gradientUnits="userSpaceOnUse" />
  </defs>
  <g
     id="layer1">
    <path
       d="M 5.5,3.5 C 5.5,10.166667 5.5,14.645832 5.5,21.3125 C 5.5014479,21.321187 5.5275514,21.333988 5.53125,21.34375 C 5.5196405,21.392793 5.5,21.450047 5.5,21.5 C 5.5,22.610072 8.4059279,23.5 12,23.5 C 15.594072,23.5 18.5,22.610071 18.5,21.5 C 18.5,21.480574 18.501775,21.456794 18.5,21.4375 C 18.5,14.770833 18.5,10.166667 18.5,3.5 C 14.166667,3.5 9.8333333,3.5 5.5,3.5 z"
       id="rect2432"
       style="fill:url(#linearGradient3227);fill-opacity:1;fill-rule:nonzero;stroke:#176597;stroke-width:0.99999994;stroke-linecap:round;stroke-linejoin:round;marker:none;marker-start:none;marker-mid:none;marker-end:none;stroke-miterlimit:10;stroke-dasharray:none;stroke-dashoffset:0;stroke-opacity:1;visibility:visible;display:inline;overflow:visible;enable-background:accumulate" />
    <path
       d="M 36.857142,14.071428 A 12.857142,5.5 0 1 1 11.142858,14.071428 A 12.857142,5.5 0 1 1 36.857142,14.071428 z"
       transform="matrix(0.5064111,0,0,0.3656364,-0.1538667,-1.6450266)"
       id="path3243"
       style="fill:url(#linearGradient3245);fill-opacity:1;fill-rule:nonzero;stroke:url(#linearGradient3247);stroke-width:2.27280688;stroke-linecap:butt;stroke-linejoin:round;marker:none;marker-start:none;marker-mid:none;marker-end:none;stroke-miterlimit:10;stroke-dasharray:none;stroke-dashoffset:0;stroke-opacity:1;visibility:visible;display:block;overflow:visible" />
    <path
       d="M 12.060888,0.6710315 C 10.760788,0.652757 9.5074846,0.9317718 9.5074846,1.3167886 C 9.5074846,1.354974 9.5074846,2.6095208 9.5074846,2.6492893 C 9.5074846,3.1814357 10.956671,3.4925155 12.060888,3.4925155 C 13.165103,3.4925155 14.492515,3.1814357 14.492515,2.6492893 C 14.492515,2.6177912 14.492515,1.598611 14.492515,1.3167886 C 14.492515,1.034966 13.373225,0.6894779 12.060888,0.6710315 z"
       id="path3251"
       style="opacity:0.3;fill:url(#linearGradient3255);fill-opacity:1;fill-rule:nonzero;stroke:#919191;stroke-width:1.01496899;stroke-linecap:butt;stroke-linejoin:round;marker:none;marker-start:none;marker-mid:none;marker-end:none;stroke-miterlimit:10;stroke-dasharray:none;stroke-dashoffset:0;stroke-opacity:1;visibility:visible;display:block;overflow:visible" />
    <path
       d="M 36.857142,14.071428 A 12.857142,5.5 0 1 1 11.142858,14.071428 A 12.857142,5.5 0 1 1 36.857142,14.071428 z"
       transform="matrix(0.1938623,0,0,0.11461,7.3473048,-0.4748872)"
       id="path3253"
       style="opacity:0.4;fill:url(#linearGradient3257);fill-opacity:1;fill-rule:nonzero;stroke:url(#linearGradient3259);stroke-width:6.80917931;stroke-linecap:butt;stroke-linejoin:round;marker:none;marker-start:none;marker-mid:none;marker-end:none;stroke-miterlimit:10;stroke-dasharray:none;stroke-dashoffset:0;stroke-opacity:1;visibility:visible;display:block;overflow:visible" />
  </g>
</svg>
